X: 121
T: Mrs Hermitage's Fancy
%O: 1795
%R: reel
Z: 2018 John Chambers <jc:trillian.mit.edu>
B: Wm. Campbell "10th Book of New and Favorite Country Dances, Strathey Reels" 1795 p.12
F: https://archive.org/details/campbellstenthbo00camp
M: C|
L: 1/8
K: C
% - - - - - - - - - - - - - - - - - - - - - - - - -
% Voice 1 arranged for small-scale proofreading
V: 1 staves=2
G |\
c2ec gcec | fdec Ad-de |\
c2ec gcec | fdec Gc-c |[| c |\
eceg afge | fdec Ad-dg |
eceg afge | fdec Gc-cf |\
eceg afge | fdec Ad-df |\
egec fdge | fdec Gc-c |]
% - - - - - - - - - - - - - - - - - - - - - - - - -
% Voice 1 preserves the original staff layout
V: 2 clef=bass middle=d
z |\
c2c2 e2c2 | ABce f2gz | c2c2 e2c2 | ABce g2c |[| z |
c2c2 f2e2 | d2c2 f2gz | c2c2 f2e2 | d2c2 g2cz | c2c2 f2e2 |
d2c2 f2g2 | c'2c2 f2e2 | d2c2 g2c |]
% - - - - - - - - - - - - - - - - - - - - - - - - -
%%begintext align
%% The 1st Lady set to the 2d Gent &
%% turn the 3d :|: the Gent do the same
%% :|: Lead down the middle :|: up again
%% & Poussett half round with the 2d
%%endtext
% - - - - - - - - - - - - - - - - - - - - - - - - -

%%sep 1 1 500
%%sep 1 1 500

